X:1
T:Commandment
%%score 1 2 3
L:1/8
M:20/4
K:A
V:1 treble nm="Soprano" snm="S."
V:2 treble-8 nm="Tenor" snm="T."
V:3 bass nm="Bass" snm="B."
V:1
 A8 A4 B4 c4 e4 d4 c4 B8 | c8 d4 c4 B4 A4 G4 A4 B8 | e8 d4 c4 B4 G4 A4 F4 E8 | %3
 c8 d4 c4 B4 A4 c4 B4 A8 |] %4
V:2
 A8 F4 G4 A4 c4 B4 A4 G8 | A8 F4 A4 G4 A4 B4 c4 B8 | A8 F4 A4 G4 E4 E4 ^D4 E8 | %3
 A8 F4 A4 G4 A4 A4 G4 A8 |] %4
V:3
 A,,8 D,4 B,,4 A,,4 A,,4 D,4 A,,4 E,8 | A,,8 B,,4 (C,2 D,2) E,4 F,4 E,4 A,,4 E,8 | %2
 C,8 B,,4 A,,4 E,4 E,4 A,,4 B,,4 E,8 | A,,8 D,4 A,,4 E,4 F,4 D,4 E,4 A,,8 |] %4

